packages/tokens/icons/path/size24Px.svg

<svg viewBox="0 0 24 24" fill="none" xmlns="http://www.w3.org/2000/svg" width="1em" height="1em"><path d="M18.5 6.5L21.5 9.5L18.5 12.5" stroke="currentColor" stroke-linecap="round" stroke-linejoin="round"/><path d="M5.5 12V12C6.60457 12 7.5 11.1046 7.5 10V7.5C7.5 5.29086 9.29086 3.5 11.5 3.5V3.5C13.7091 3.5 15.5 5.29086 15.5 7.5L15.5 15.3584C15.5 17.1824 13.2582 18.0544 12.0257 16.7098L10.929 15.5134C10.337 14.8677 9.50123 14.5 8.62521 14.5H8.5C6.84315 14.5 5.5 15.8431 5.5 17.5V17.5C5.5 19.1569 6.84315 20.5 8.5 20.5V20.5C10.1569 20.5 11.5 19.1569 11.5 17.5L11.5 12.5C11.5 10.8431 12.8431 9.5 14.5 9.5L21 9.5" stroke="currentColor" stroke-linecap="round"/><path d="M5.5 12C5.5 12.8284 4.82843 13.5 4 13.5C3.17157 13.5 2.5 12.8284 2.5 12C2.5 11.1716 3.17157 10.5 4 10.5C4.82843 10.5 5.5 11.1716 5.5 12Z" stroke="currentColor"/></svg>

<svg xmlns="http://www.w3.org/2000/svg" fill="none" viewBox="0 0 24 24" width="1em" height="1em"><path stroke="currentColor" stroke-linecap="round" stroke-linejoin="round" d="m18.5 6.5 3 3-3 3"/><path stroke="currentColor" stroke-linecap="round" d="M5.5 12v0a2 2 0 0 0 2-2V7.5a4 4 0 0 1 4-4v0a4 4 0 0 1 4 4v7.858c0 1.824-2.242 2.696-3.474 1.352l-1.097-1.197A3.126 3.126 0 0 0 8.625 14.5H8.5a3 3 0 0 0-3 3v0a3 3 0 0 0 3 3v0a3 3 0 0 0 3-3v-5a3 3 0 0 1 3-3H21"/><path stroke="currentColor" d="M5.5 12a1.5 1.5 0 1 1-3 0 1.5 1.5 0 0 1 3 0Z"/></svg>
